svgs/sharp-light/truck-fire.svg

<svg xmlns="http://www.w3.org/2000/svg" viewBox="0 0 640 512"><!--! Font Awesome Pro 6.5.2 by @fontawesome - https://fontawesome.com License - https://fontawesome.com/license (Commercial License) Copyright 2024 Fonticons, Inc. --><path d="M640 0H0V32H64V96H32 0v32V384v32H32 64c0 53 43 96 96 96s96-43 96-96H384c0 53 43 96 96 96s96-43 96-96h32 32V384 128 96H608 544c0-17.7-14.3-32-32-32s-32 14.3-32 32H384V32H640V0zM352 32V96H288V32h64zm0 96h32V256H32V128H64 96 352zm64 0h64 64 64V384H570.5c-13.2-37.3-48.7-64-90.5-64s-77.4 26.7-90.5 64H250.5c-13.2-37.3-48.7-64-90.5-64s-77.4 26.7-90.5 64H32V288H400h16V272 128zM256 32V96H192V32h64zm-96 0V96H96V32h64zM480 192h64v64H480V192zm0-32H448v32 64 32h32 64 32V256 192 160H544 480zM160 352a64 64 0 1 1 0 128 64 64 0 1 1 0-128zm256 64a64 64 0 1 1 128 0 64 64 0 1 1 -128 0z"/></svg>

<svg xmlns="http://www.w3.org/2000/svg" viewBox="0 0 640 512"><!--! Font Awesome Pro 6.6.0 by @fontawesome - https://fontawesome.com License - https://fontawesome.com/license (Commercial License) Copyright 2024 Fonticons, Inc. --><path d="M640 0L0 0 0 32l64 0 0 64L32 96 0 96l0 32L0 384l0 32 32 0 32 0c0 53 43 96 96 96s96-43 96-96l128 0c0 53 43 96 96 96s96-43 96-96l32 0 32 0 0-32 0-256 0-32-32 0-64 0c0-17.7-14.3-32-32-32s-32 14.3-32 32l-96 0 0-64 256 0 0-32zM352 32l0 64-64 0 0-64 64 0zm0 96l32 0 0 128L32 256l0-128 32 0 32 0 256 0zm64 0l64 0 64 0 64 0 0 256-37.5 0c-13.2-37.3-48.7-64-90.5-64s-77.4 26.7-90.5 64l-138.9 0c-13.2-37.3-48.7-64-90.5-64s-77.4 26.7-90.5 64L32 384l0-96 368 0 16 0 0-16 0-144zM256 32l0 64-64 0 0-64 64 0zm-96 0l0 64L96 96l0-64 64 0zM480 192l64 0 0 64-64 0 0-64zm0-32l-32 0 0 32 0 64 0 32 32 0 64 0 32 0 0-32 0-64 0-32-32 0-64 0zM160 352a64 64 0 1 1 0 128 64 64 0 1 1 0-128zm256 64a64 64 0 1 1 128 0 64 64 0 1 1 -128 0z"/></svg>
